assets/icons/update.svg

<svg xmlns="http://www.w3.org/2000/svg" viewBox="0 0 24 24" role="presentation" aria-hidden="true"><path d="M19.1875 12.4335C19.0149 12.4335 18.8749 12.5727 18.8749 12.7442C18.8749 16.5134 15.7905 18.9783 11.9997 18.9783C8.77152 18.9783 6.79396 16.705 5.66017 14.6281H7.3121C7.4846 14.6281 7.62461 14.4888 7.62461 14.3173C7.62461 14.1458 7.4846 14.0066 7.3121 14.0066H4.81202C4.63952 14.0066 4.49951 14.1458 4.49951 14.3173V16.7771C4.49951 16.9486 4.63952 17.0878 4.81202 17.0878C4.98453 17.0878 5.12453 16.9492 5.12453 16.7771V14.9438C6.79021 17.9902 9.15715 19.5998 11.9997 19.5998C16.1355 19.5998 19.5 16.8565 19.5 12.7442C19.5 12.5727 19.36 12.4335 19.1875 12.4335ZM19.1875 7.19654C19.0149 7.19654 18.8749 7.33575 18.8749 7.50728V9.34061C17.2093 6.29355 14.8423 4.68457 11.9997 4.68457C7.86399 4.68457 4.49951 8.02993 4.49951 12.1422C4.49951 12.3137 4.63952 12.4529 4.81202 12.4529C4.98453 12.4529 5.12453 12.3137 5.12453 12.1422C5.12453 8.37298 8.209 5.30604 11.9997 5.30604C15.228 5.30604 17.2055 7.57937 18.3393 9.65631H16.6874C16.5149 9.65631 16.3749 9.79552 16.3749 9.96705C16.3749 10.1386 16.5149 10.2778 16.6874 10.2778H19.1875C19.36 10.2778 19.5 10.1386 19.5 9.96705V7.50728C19.5 7.33575 19.36 7.19654 19.1875 7.19654Z" fill="currentColor"/><path fill-rule="evenodd" clip-rule="evenodd" d="M4.27441 12.1421C4.27441 7.90436 7.74084 4.45947 11.9996 4.45947C14.708 4.45947 16.9836 5.87481 18.6498 8.51349V7.50718C18.6498 7.21018 18.8918 6.97144 19.1874 6.97144C19.4829 6.97144 19.7249 7.21018 19.7249 7.50718V9.96695C19.7249 10.2639 19.4829 10.5027 19.1874 10.5027H16.6873C16.3917 10.5027 16.1498 10.2639 16.1498 9.96695C16.1498 9.66995 16.3917 9.43121 16.6873 9.43121H17.9534C16.8114 7.48361 14.936 5.53094 11.9996 5.53094C8.33195 5.53094 5.34943 8.49835 5.34943 12.1421C5.34943 12.4391 5.10748 12.6778 4.81192 12.6778C4.51636 12.6778 4.27441 12.4391 4.27441 12.1421ZM11.9996 4.90947C7.98694 4.90947 4.72441 8.1553 4.72441 12.1421C4.72441 12.1881 4.76247 12.2278 4.81192 12.2278C4.86137 12.2278 4.89943 12.1881 4.89943 12.1421C4.89943 8.24741 8.08585 5.08094 11.9996 5.08094C15.3523 5.08094 17.3889 7.44586 18.5367 9.54841L18.7184 9.88121H16.6873C16.6378 9.88121 16.5998 9.92089 16.5998 9.96695C16.5998 10.013 16.6378 10.0527 16.6873 10.0527H19.1874C19.2368 10.0527 19.2749 10.013 19.2749 9.96695V7.50718C19.2749 7.46112 19.2368 7.42144 19.1874 7.42144C19.1379 7.42144 19.0998 7.46112 19.0998 7.50718V9.34051L18.6774 9.44843C17.0406 6.45412 14.74 4.90947 11.9996 4.90947ZM18.6498 12.7441C18.6498 12.4471 18.8918 12.2084 19.1874 12.2084C19.4829 12.2084 19.7249 12.4471 19.7249 12.7441C19.7249 17.006 16.2327 19.8247 11.9996 19.8247C9.29127 19.8247 7.01563 18.4088 5.34943 15.7706V16.777C5.34943 17.0749 5.10719 17.3127 4.81192 17.3127C4.51636 17.3127 4.27441 17.074 4.27441 16.777V14.3172C4.27441 14.0202 4.51636 13.7815 4.81192 13.7815H7.312C7.60756 13.7815 7.84951 14.0202 7.84951 14.3172C7.84951 14.6142 7.60756 14.853 7.312 14.853H6.04585C7.18784 16.8006 9.06332 18.7532 11.9996 18.7532C15.6957 18.7532 18.6498 16.3614 18.6498 12.7441ZM19.1874 12.6584C19.1379 12.6584 19.0998 12.6981 19.0998 12.7441C19.0998 16.6652 15.8851 19.2032 11.9996 19.2032C8.64698 19.2032 6.61035 16.8383 5.46258 14.7358L5.28091 14.403H7.312C7.36145 14.403 7.39951 14.3633 7.39951 14.3172C7.39951 14.2712 7.36145 14.2315 7.312 14.2315H4.81192C4.76247 14.2315 4.72441 14.2712 4.72441 14.3172V16.777C4.72441 16.823 4.76247 16.8627 4.81192 16.8627C4.86167 16.8627 4.89943 16.8234 4.89943 16.777V14.9437L5.32185 14.8357C6.95871 17.8294 9.25934 19.3747 11.9996 19.3747C16.0381 19.3747 19.2749 16.7067 19.2749 12.7441C19.2749 12.6981 19.2368 12.6584 19.1874 12.6584Z" fill="currentColor"/></svg>

<svg xmlns="http://www.w3.org/2000/svg" aria-hidden="true" viewBox="0 0 24 24"><path fill="currentColor" d="M19.188 12.434a.31.31 0 0 0-.313.31c0 3.77-3.085 6.234-6.875 6.234-3.228 0-5.206-2.273-6.34-4.35h1.652c.173 0 .313-.14.313-.31a.31.31 0 0 0-.313-.311h-2.5a.31.31 0 0 0-.312.31v2.46c0 .172.14.31.312.31a.31.31 0 0 0 .313-.31v-1.833C6.79 17.99 9.157 19.6 12 19.6c4.136 0 7.5-2.744 7.5-6.856 0-.171-.14-.31-.312-.31m0-5.237a.31.31 0 0 0-.313.31v1.834C17.209 6.294 14.842 4.685 12 4.685c-4.136 0-7.5 3.345-7.5 7.457a.312.312 0 0 0 .625 0c0-3.769 3.084-6.836 6.875-6.836 3.228 0 5.206 2.273 6.34 4.35h-1.653a.31.31 0 0 0-.312.311c0 .172.14.31.312.31h2.5a.31.31 0 0 0 .313-.31v-2.46c0-.171-.14-.31-.312-.31"/><path fill="currentColor" fill-rule="evenodd" d="M4.274 12.142C4.274 7.904 7.741 4.46 12 4.46c2.708 0 4.984 1.416 6.65 4.054V7.507a.537.537 0 0 1 1.075 0v2.46a.537.537 0 0 1-.538.536h-2.5a.537.537 0 1 1 0-1.072h1.266c-1.142-1.947-3.017-3.9-5.953-3.9-3.668 0-6.65 2.967-6.65 6.611a.537.537 0 0 1-1.076 0M12 4.91c-4.013 0-7.276 3.246-7.276 7.233 0 .046.038.086.088.086s.087-.04.087-.086c0-3.895 3.187-7.061 7.1-7.061 3.353 0 5.39 2.365 6.538 4.467l.181.333h-2.03c-.05 0-.088.04-.088.086s.038.086.087.086h2.5c.05 0 .088-.04.088-.086v-2.46a.087.087 0 0 0-.088-.086c-.05 0-.087.04-.087.086v1.834l-.423.107C17.041 6.454 14.74 4.91 12 4.91m6.65 7.835a.537.537 0 0 1 1.075 0c0 4.262-3.492 7.08-7.725 7.08-2.709 0-4.984-1.415-6.65-4.053v1.006a.536.536 0 0 1-1.076 0v-2.46c0-.297.242-.536.538-.536h2.5a.537.537 0 1 1 0 1.072H6.046c1.142 1.948 3.017 3.9 5.954 3.9 3.696 0 6.65-2.392 6.65-6.009m.537-.086c-.05 0-.087.04-.087.086 0 3.921-3.215 6.46-7.1 6.46-3.353 0-5.39-2.366-6.537-4.468l-.182-.333h2.031c.05 0 .088-.04.088-.086a.087.087 0 0 0-.088-.085h-2.5c-.05 0-.088.04-.088.085v2.46c0 .046.038.086.088.086s.087-.04.087-.086v-1.833l.423-.108C6.959 17.83 9.259 19.376 12 19.376c4.038 0 7.275-2.668 7.275-6.63a.087.087 0 0 0-.088-.087" clip-rule="evenodd"/></svg>
